src/components/common/icons/female.svg

<?xml version="1.0" encoding="UTF-8"?>
<svg width="32px" height="63px" viewBox="0 0 32 63" version="1.1" xmlns="http://www.w3.org/2000/svg" xmlns:xlink="http://www.w3.org/1999/xlink">
    <!-- Generator: Sketch 52.5 (67469) - http://www.bohemiancoding.com/sketch -->
    <title>Icons/.female</title>
    <desc>Created with Sketch.</desc>
    <g id="Vapaaehtoisalusta-Layouts" stroke="none" stroke-width="1" fill="none" fill-rule="evenodd">
        <g id="HKI-Ikonit" transform="translate(-753.000000, -524.000000)" fill="#010202">
            <g id="Icons/.female" transform="translate(753.000000, 524.000000)">
                <path d="M16.02048,5.136 C14.11968,5.136 12.57408,6.6816 12.57408,8.5824 C12.57408,10.4816 14.11968,12.0288 16.02048,12.0288 C17.91968,12.0288 19.46528,10.4816 19.46528,8.5824 C19.46528,6.6816 17.91968,5.136 16.02048,5.136 M16.02048,0.6416 C20.40608,0.6416 23.96128,4.1968 23.96128,8.5824 C23.96128,12.9696 20.40608,16.5232 16.02048,16.5232 C11.63488,16.5232 8.07968,12.9696 8.07968,8.5824 C8.07968,4.1968 11.63488,0.6416 16.02048,0.6416" id="Fill-100"></path>
                <polygon id="Fill-102" points="8.22992 62.81712 23.81072 62.81712 23.81072 48.58352 19.31632 48.58352 19.31632 58.32272 12.72432 58.32272 12.72432 48.58352 8.22992 48.58352"></polygon>
                <path d="M4.73616,49.1016 L9.66416,28.2472 C10.06576,26.548 11.56496,25.3624 13.30896,25.3624 L18.79376,25.3624 C20.54416,25.3624 22.04336,26.5528 22.44016,28.2568 L27.30096,49.0952 L31.67856,48.0744 L26.81936,27.236 C25.94416,23.4856 22.64336,20.868 18.79376,20.868 L13.30896,20.868 C9.47056,20.868 6.17136,23.4776 5.28976,27.2136 L0.36176,48.068 L4.73616,49.1016 Z" id="Fill-104"></path>
            </g>
        </g>
    </g>
</svg>

<svg height="63" viewBox="0 0 32 63" width="32" xmlns="http://www.w3.org/2000/svg"><g fill="#010202" fill-rule="evenodd"><path d="m16.02048 5.136c-1.9008 0-3.4464 1.5456-3.4464 3.4464 0 1.8992 1.5456 3.4464 3.4464 3.4464 1.8992 0 3.4448-1.5472 3.4448-3.4464 0-1.9008-1.5456-3.4464-3.4448-3.4464m0-4.4944c4.3856 0 7.9408 3.5552 7.9408 7.9408 0 4.3872-3.5552 7.9408-7.9408 7.9408s-7.9408-3.5536-7.9408-7.9408c0-4.3856 3.5552-7.9408 7.9408-7.9408"/><path d="m8.22992 62.81712h15.5808v-14.2336h-4.4944v9.7392h-6.592v-9.7392h-4.4944z"/><path d="m4.73616 49.1016 4.928-20.8544c.4016-1.6992 1.9008-2.8848 3.6448-2.8848h5.4848c1.7504 0 3.2496 1.1904 3.6464 2.8944l4.8608 20.8384 4.3776-1.0208-4.8592-20.8384c-.8752-3.7504-4.176-6.368-8.0256-6.368h-5.4848c-3.8384 0-7.1376 2.6096-8.0192 6.3456l-4.928 20.8544z"/></g></svg>
